X:1

T:White Pony, The

M:6/8

L:1/8

Z:transcribed by Ted Hastings

S:Jimmy McHugh ‑ Falkirk Fiddle Workshop

K:A

E|EAA BAF|Ace agf|ecA BAF|Bdc BAF|!

EAA BAF|Ace agf|ecA BAF|ABA A2:||!

e|aba afe|fef a2 f|ecA BAF|!

[1 Bdc Bce|aba afe|fef a2 f|ecA BAF|ABA A2:||!

[2 Bdc BAF|EAA BAF|Ace agf|ecA BAF|ABA A2||

 


WHITE POST, THE (Le Poteau Blanc). French‑Canadian, Reel. A Major. Standard tuning. AABB’. The ‘B’ part’s last measure has an extra beat in the first turn. The tune comes from the repertoire of Joseph Allard (1873-1947), mentor of Jean Carignan. Remon & Bouchard (25 Crooked Tunes, vol. 2: Québec Fiddle Tunes), 1997; No. 21. Folkways FG 3531, "Old Time Fiddle Tunes played by Jean Carignan" (1968).

 

WHITE RIVER. Old-Time, Breakdown. USA, Missouri. A Major. AEac# tuning. AABBC. The tune was recorded for the Library of Congress by musicologist/folklorist Vance Randolph, from the playing of Ozark Mountain fiddlers in the early 1940's. The White River flows through southern Missouri and northern Arkansas and into the Mississippi River at Scrubgrass Bend, above Rosedale, Mississippi. The tune was “a special tune” played in the Goforth family repertoire for generations, according to the liner notes of Gene Goforth’s album, however, John Hartford (2001) says it is “one of those ancient Ozark tunes that nobody seems to know its origin.” Howe Teague learned it when he was young, and said he thought he had learned it from influential fiddler Roy Wooliver, and also cited another local fiddler, Buck Sullivan, as another he remembered playing it (Beisswenger & McCann, 2008). Drew Beisswenger (2008) notes similarities with other Ozark tunes “Old Charlie Deckard,” “Bear Creek Sally Goodin’,” and “Broken-Legged Chicken,” all of whom he says resemble parts of the well-known “Old Dan Tucker.” Source for notated version: Howe Teague (1913-2005, Dent County, Missouri) [Beisswenger & McCann]. Beisswenger & McCann (Ozark Fiddle Music), 2008; pg. 150. Grey Eagle 101, Howe Teague – “Now That’s a Good Tune: Masters of Missouri Traditional Fiddling” (1989. Various artists). Rounder CD-0388, Gene Goforth – “Emminence Breakdown” (1997). Rounder 0442, John Hartford – “Hamilton Ironworks” (2001). Rounder CD 0435, Howe Teague – “Traditional Fiddle Music of the Ozarks, vol. 1” (1999. Various artists).

 

WHITE RIVER BOTTOMS. Old-Time, Breakdown. USA, Indiana. D Major. Standard tuning. AABB. The tune was known among older fiddlers in central and southern Indiana, reports Paul Tyler, including Noble Melton, Frank Wisehart, Ken Smelser, as well as Lotus Dickey and Jimmy Campbell of Dolan Heights. Sources for notated versions: Lotus Dickey (Indiana) [Phillips]; W.B. Reid [Silberberg]. Phillips (Traditional American Fiddle Tunes), vol. 2, 1995; pg. 256. Silberberg (Tunes I Learned at Tractor Tavern), 2002; pg. 169.

 

WHITE RIVER CHARLEY. Old‑Time. The title appears in a list of traditional Ozark Mountain fiddle tunes compiled by musicologist/folklorist Vance Randolph, published in 1954.

 

WHITE RIVER SHORE. Old‑Time. The title appears in a list of traditional Ozark Mountain fiddle tunes compiled by musicologist/folklorist Vance Randolph, published in 1954.

 

WHITE RIVER STOMP. Canadian, American; Country Rag (4/4 time) or Set Dance. F Major. Standard tuning. AA’B (Perlman): AA'BCC (Phillips): AA'BCD (Messer). See also the related "Oklahoma Rag" and "Beaumont Rag." Sources for notated versions: Howard Cawley with Jack Cawley's Oklahoma Ridge Runners (Stillwater, Oklahoma) [Phillips]; Harry Lecky (b. 1929, Milburn, West Prince County, Prince Edward Island), who learned it from the radio in the 1940’s, probably, says Perlman, from the playing of Don Messer [Perlman]. Messer (Way Down East), 1948; No. 97. Messer (Anthology of Favorite Fiddle Tunes), 1980; No. 179, pg. 124. Perlman (The Fiddle Music of Prince Edward Island), 1996; pg. 149. Phillips (Traditional American Fiddle Tunes), vol. 2, 1995; pg. 167. Marimac 9111, Jack Cawley's Oklahoma Ridge Runners ‑ "Goin' Up Town: Old Time String Bands, vol. 2" (originally recorded in 1930). Rounder CD7014, Harry Lecky – “Fiddlers of Western Prince Edward Island” (1997).

